P3
# Simple text-based placeholder image (replace /opt/kiosk/logo.png with your own logo)
32 18
255
20 20 20  20 20 20  20 20 20  20 20 20  20 20 20  20 20 20  20 20 20  20 20 20  20 20 20  20 20 20  20 20 20  20 20 20  20 20 20  20 20 20  20 20 20  20 20 20  20 20 20  20 20 20  20 20 20  20 20 20  20 20 20  20 20 20  20 20 20  20 20 20  20 20 20  20 20 20  20 20 20  20 20 20  20 20 20  20 20 20  20 20 20  20 20 20
20 20 20  20 20 20  20 20 20  20 20 20  20 20 20  20 20 20  20 20 20  20 20 20  20 20 20  20 20 20  20 20 20  20 20 20  20 20 20  20 20 20  20 20 20  20 20 20  20 20 20  20 20 20  20 20 20  20 20 20  20 20 20  20 20 20  20 20 20  20 20 20  20 20 20  20 20 20  20 20 20  20 20 20  20 20 20  20 20 20  20 20 20  20 20 20
20 20 20  20 20 20  20 20 20  20 20 20  20 20 20  20 20 20  20 20 20  20 20 20  20 20 20  20 20 20  20 20 20  20 20 20  20 20 20  20 20 20  20 20 20  20 20 20  20 20 20  20 20 20  20 20 20  20 20 20  20 20 20  20 20 20  20 20 20  20 20 20  20 20 20  20 20 20  20 20 20  20 20 20  20 20 20  20 20 20  20 20 20  20 20 20
20 20 20  20 20 20  20 20 20  20 20 20  20 20 20  20 20 20  20 20 20  20 20 20  20 20 20  20 20 20  20 20 20  20 20 20  20 20 20  20 20 20  20 20 20  20 20 20  20 20 20  20 20 20  20 20 20  20 20 20  20 20 20  20 20 20  20 20 20  20 20 20  20 20 20  20 20 20  20 20 20  20 20 20  20 20 20  20 20 20  20 20 20  20 20 20
20 20 20  20 20 20  20 20 20  20 20 20  200 70 70  200 70 70  200 70 70  20 20 20  20 20 20  20 20 20  20 20 20  20 20 20  200 70 70  200 70 70  200 70 70  20 20 20  20 20 20  20 20 20  20 20 20  20 20 20  200 70 70  200 70 70  200 70 70  20 20 20  20 20 20  20 20 20  20 20 20  20 20 20  20 20 20  20 20 20
20 20 20  20 20 20  20 20 20  20 20 20  200 70 70  20 20 20  20 20 20  20 20 20  20 20 20  20 20 20  20 20 20  20 20 20  200 70 70  20 20 20  20 20 20  20 20 20  20 20 20  20 20 20  20 20 20  200 70 70  20 20 20  20 20 20  20 20 20  20 20 20  20 20 20  20 20 20  20 20 20  20 20 20  20 20 20  20 20 20
20 20 20  20 20 20  20 20 20  20 20 20  200 70 70  20 20 20  20 20 20  20 20 20  20 20 20  20 20 20  20 20 20  20 20 20  200 70 70  20 20 20  20 20 20  20 20 20  20 20 20  20 20 20  20 20 20  200 70 70  20 20 20  20 20 20  20 20 20  20 20 20  20 20 20  20 20 20  20 20 20  20 20 20  20 20 20  20 20 20
20 20 20  20 20 20  20 20 20  20 20 20  200 70 70  200 70 70  200 70 70  20 20 20  20 20 20  20 20 20  20 20 20  20 20 20  200 70 70  200 70 70  200 70 70  20 20 20  20 20 20  20 20 20  20 20 20  20 20 20  200 70 70  200 70 70  200 70 70  20 20 20  20 20 20  20 20 20  20 20 20  20 20 20  20 20 20  20 20 20
20 20 20  20 20 20  20 20 20  20 20 20  200 70 70  20 20 20  20 20 20  20 20 20  20 20 20  20 20 20  20 20 20  20 20 20  200 70 70  20 20 20  20 20 20  20 20 20  20 20 20  20 20 20  20 20 20  200 70 70  20 20 20  20 20 20  20 20 20  20 20 20  20 20 20  20 20 20  20 20 20  20 20 20  20 20 20  20 20 20
20 20 20  20 20 20  20 20 20  20 20 20  200 70 70  20 20 20  20 20 20  20 20 20  20 20 20  20 20 20  20 20 20  20 20 20  200 70 70  20 20 20  20 20 20  20 20 20  20 20 20  20 20 20  20 20 20  200 70 70  20 20 20  20 20 20  20 20 20  20 20 20  20 20 20  20 20 20  20 20 20  20 20 20  20 20 20  20 20 20
20 20 20  20 20 20  20 20 20  20 20 20  200 70 70  20 20 20  20 20 20  20 20 20  20 20 20  20 20 20  20 20 20  20 20 20  200 70 70  20 20 20  20 20 20  20 20 20  20 20 20  20 20 20  20 20 20  200 70 70  20 20 20  20 20 20  20 20 20  20 20 20  20 20 20  20 20 20  20 20 20  20 20 20  20 20 20  20 20 20
20 20 20  20 20 20  20 20 20  20 20 20  200 70 70  200 70 70  200 70 70  20 20 20  20 20 20  20 20 20  20 20 20  20 20 20  200 70 70  200 70 70  200 70 70  20 20 20  20 20 20  20 20 20  20 20 20  20 20 20  200 70 70  200 70 70  200 70 70  20 20 20  20 20 20  20 20 20  20 20 20  20 20 20  20 20 20  20 20 20
20 20 20  20 20 20  20 20 20  20 20 20  20 20 20  20 20 20  20 20 20  20 20 20  20 20 20  20 20 20  20 20 20  20 20 20  20 20 20  20 20 20  20 20 20  20 20 20  20 20 20  20 20 20  20 20 20  20 20 20  20 20 20  20 20 20  20 20 20  20 20 20  20 20 20  20 20 20  20 20 20  20 20 20  20 20 20  20 20 20
20 20 20  20 20 20  20 20 20  20 20 20  20 20 20  20 20 20  20 20 20  20 20 20  20 20 20  20 20 20  20 20 20  20 20 20  20 20 20  20 20 20  20 20 20  20 20 20  20 20 20  20 20 20  20 20 20  20 20 20  20 20 20  20 20 20  20 20 20  20 20 20  20 20 20  20 20 20  20 20 20  20 20 20  20 20 20  20 20 20
20 20 20  20 20 20  20 20 20  20 20 20  20 20 20  20 20 20  20 20 20  20 20 20  20 20 20  20 20 20  20 20 20  20 20 20  20 20 20  20 20 20  20 20 20  20 20 20  20 20 20  20 20 20  20 20 20  20 20 20  20 20 20  20 20 20  20 20 20  20 20 20  20 20 20  20 20 20  20 20 20  20 20 20  20 20 20  20 20 20
20 20 20  20 20 20  20 20 20  20 20 20  20 20 20  20 20 20  20 20 20  20 20 20  20 20 20  20 20 20  20 20 20  20 20 20  20 20 20  20 20 20  20 20 20  20 20 20  20 20 20  20 20 20  20 20 20  20 20 20  20 20 20  20 20 20  20 20 20  20 20 20  20 20 20  20 20 20  20 20 20  20 20 20  20 20 20  20 20 20
20 20 20  20 20 20  20 20 20  20 20 20  20 20 20  20 20 20  20 20 20  20 20 20  20 20 20  20 20 20  20 20 20  20 20 20  20 20 20  20 20 20  20 20 20  20 20 20  20 20 20  20 20 20  20 20 20  20 20 20  20 20 20  20 20 20  20 20 20  20 20 20  20 20 20  20 20 20  20 20 20  20 20 20  20 20 20  20 20 20
20 20 20  20 20 20  20 20 20  20 20 20  20 20 20  20 20 20  20 20 20  20 20 20  20 20 20  20 20 20  20 20 20  20 20 20  20 20 20  20 20 20  20 20 20  20 20 20  20 20 20  20 20 20  20 20 20  20 20 20  20 20 20  20 20 20  20 20 20  20 20 20  20 20 20  20 20 20  20 20 20  20 20 20  20 20 20  20 20 20
